images/3232959.svg

<?xml version="1.0" encoding="UTF-8"?>
<svg xmlns="http://www.w3.org/2000/svg" xmlns:xlink="http://www.w3.org/1999/xlink" width="300pt" height="300pt" viewBox="0 0 300 300" version="1.1">
<defs>
<g>
<symbol overflow="visible" id="glyph0-0">
<path style="stroke:none;" d="M 0.796875 2.828125 L 0.796875 -11.28125 L 8.796875 -11.28125 L 8.796875 2.828125 Z M 1.703125 1.9375 L 7.90625 1.9375 L 7.90625 -10.390625 L 1.703125 -10.390625 Z M 1.703125 1.9375 "/>
</symbol>
<symbol overflow="visible" id="glyph0-1">
<path style="stroke:none;" d="M 1.578125 -11.671875 L 3.703125 -11.671875 L 8.875 -1.90625 L 8.875 -11.671875 L 10.40625 -11.671875 L 10.40625 0 L 8.28125 0 L 3.109375 -9.765625 L 3.109375 0 L 1.578125 0 Z M 1.578125 -11.671875 "/>
</symbol>
<symbol overflow="visible" id="glyph0-2">
<path style="stroke:none;" d="M 1.578125 -11.671875 L 3.15625 -11.671875 L 3.15625 -6.890625 L 8.890625 -6.890625 L 8.890625 -11.671875 L 10.46875 -11.671875 L 10.46875 0 L 8.890625 0 L 8.890625 -5.5625 L 3.15625 -5.5625 L 3.15625 0 L 1.578125 0 Z M 1.578125 -11.671875 "/>
</symbol>
<symbol overflow="visible" id="glyph0-3">
<path style="stroke:none;" d="M 1.578125 -11.671875 L 8.28125 -11.671875 L 8.28125 -10.34375 L 3.15625 -10.34375 L 3.15625 -6.90625 L 7.78125 -6.90625 L 7.78125 -5.578125 L 3.15625 -5.578125 L 3.15625 0 L 1.578125 0 Z M 1.578125 -11.671875 "/>
</symbol>
</g>
</defs>
<g id="surface29777">
<rect x="0" y="0" width="300" height="300" style="fill:rgb(100%,100%,100%);fill-opacity:1;stroke:none;"/>
<path style="fill:none;stroke-width:1.2;stroke-linecap:butt;stroke-linejoin:miter;stroke:rgb(0%,0%,0%);stroke-opacity:1;stroke-miterlimit:10;" d="M 60.144531 215.203125 L 77.445312 207.054688 "/>
<path style="fill:none;stroke-width:1.2;stroke-linecap:butt;stroke-linejoin:miter;stroke:rgb(0%,0%,100%);stroke-opacity:1;stroke-miterlimit:10;" d="M 77.445312 207.054688 L 94.746094 198.902344 "/>
<path style="fill:none;stroke-width:1.2;stroke-linecap:butt;stroke-linejoin:miter;stroke:rgb(0%,0%,100%);stroke-opacity:1;stroke-miterlimit:10;" d="M 94.746094 198.902344 L 96.339844 179.84375 "/>
<path style="fill:none;stroke-width:1.2;stroke-linecap:butt;stroke-linejoin:miter;stroke:rgb(0%,0%,0%);stroke-opacity:1;stroke-miterlimit:10;" d="M 96.339844 179.84375 L 97.929688 160.785156 "/>
<path style=" stroke:none;fill-rule:nonzero;fill:rgb(100%,100%,100%);fill-opacity:1;" d="M 82.746094 189.402344 L 106.746094 189.402344 L 106.746094 208.402344 L 82.746094 208.402344 Z M 82.746094 189.402344 "/>
<g style="fill:rgb(0%,0%,100%);fill-opacity:1;">
  <use xlink:href="#glyph0-1" x="82.746094" y="204.253906"/>
  <use xlink:href="#glyph0-2" x="94.714844" y="204.253906"/>
</g>
<path style="fill:none;stroke-width:1.2;stroke-linecap:butt;stroke-linejoin:miter;stroke:rgb(0%,0%,0%);stroke-opacity:1;stroke-miterlimit:10;" d="M 97.929688 160.785156 L 82.222656 149.878906 "/>
<path style="fill:none;stroke-width:1.2;stroke-linecap:butt;stroke-linejoin:miter;stroke:rgb(0%,0%,100%);stroke-opacity:1;stroke-miterlimit:10;" d="M 82.222656 149.878906 L 66.511719 138.96875 "/>
<path style="fill:none;stroke-width:1.2;stroke-linecap:butt;stroke-linejoin:miter;stroke:rgb(0%,0%,0%);stroke-opacity:1;stroke-miterlimit:10;" d="M 99.921875 151.210938 L 87.355469 142.484375 "/>
<path style="fill:none;stroke-width:1.2;stroke-linecap:butt;stroke-linejoin:miter;stroke:rgb(0%,0%,100%);stroke-opacity:1;stroke-miterlimit:10;" d="M 87.355469 142.484375 L 74.789062 133.757812 "/>
<path style="fill:none;stroke-width:1.2;stroke-linecap:butt;stroke-linejoin:miter;stroke:rgb(0%,0%,0%);stroke-opacity:1;stroke-miterlimit:10;" d="M 132.535156 144.484375 L 97.929688 160.785156 "/>
<path style="fill:none;stroke-width:1.2;stroke-linecap:butt;stroke-linejoin:miter;stroke:rgb(0%,0%,100%);stroke-opacity:1;stroke-miterlimit:10;" d="M 66.511719 138.96875 L 68.105469 119.910156 "/>
<path style="fill:none;stroke-width:1.2;stroke-linecap:butt;stroke-linejoin:miter;stroke:rgb(0%,0%,0%);stroke-opacity:1;stroke-miterlimit:10;" d="M 68.105469 119.910156 L 69.695312 100.851562 "/>
<path style=" stroke:none;fill-rule:nonzero;fill:rgb(100%,100%,100%);fill-opacity:1;" d="M 60.511719 129.46875 L 72.511719 129.46875 L 72.511719 148.46875 L 60.511719 148.46875 Z M 60.511719 129.46875 "/>
<g style="fill:rgb(0%,0%,100%);fill-opacity:1;">
  <use xlink:href="#glyph0-1" x="60.511719" y="144.320312"/>
</g>
<path style="fill:none;stroke-width:1.2;stroke-linecap:butt;stroke-linejoin:miter;stroke:rgb(0%,0%,0%);stroke-opacity:1;stroke-miterlimit:10;" d="M 69.695312 100.851562 L 87 92.703125 "/>
<path style="fill:none;stroke-width:1.2;stroke-linecap:butt;stroke-linejoin:miter;stroke:rgb(0%,0%,100%);stroke-opacity:1;stroke-miterlimit:10;" d="M 87 92.703125 L 104.300781 84.550781 "/>
<path style="fill:none;stroke-width:1.2;stroke-linecap:butt;stroke-linejoin:miter;stroke:rgb(0%,0%,0%);stroke-opacity:1;stroke-miterlimit:10;" d="M 76.992188 107.363281 L 90.832031 100.84375 "/>
<path style="fill:none;stroke-width:1.2;stroke-linecap:butt;stroke-linejoin:miter;stroke:rgb(0%,0%,100%);stroke-opacity:1;stroke-miterlimit:10;" d="M 90.832031 100.84375 L 104.675781 94.324219 "/>
<path style="fill:none;stroke-width:1.2;stroke-linecap:butt;stroke-linejoin:miter;stroke:rgb(0%,0%,100%);stroke-opacity:1;stroke-miterlimit:10;" d="M 104.300781 84.550781 L 120.007812 95.460938 "/>
<path style="fill:none;stroke-width:1.2;stroke-linecap:butt;stroke-linejoin:miter;stroke:rgb(0%,0%,0%);stroke-opacity:1;stroke-miterlimit:10;" d="M 120.007812 95.460938 L 135.71875 106.367188 "/>
<path style=" stroke:none;fill-rule:nonzero;fill:rgb(100%,100%,100%);fill-opacity:1;" d="M 98.300781 75.050781 L 110.300781 75.050781 L 110.300781 94.050781 L 98.300781 94.050781 Z M 98.300781 75.050781 "/>
<g style="fill:rgb(0%,0%,100%);fill-opacity:1;">
  <use xlink:href="#glyph0-1" x="98.300781" y="89.902344"/>
</g>
<path style="fill:none;stroke-width:1.2;stroke-linecap:butt;stroke-linejoin:miter;stroke:rgb(0%,0%,0%);stroke-opacity:1;stroke-miterlimit:10;" d="M 135.71875 106.367188 L 132.535156 144.484375 "/>
<path style="fill:none;stroke-width:1.2;stroke-linecap:butt;stroke-linejoin:miter;stroke:rgb(0%,0%,0%);stroke-opacity:1;stroke-miterlimit:10;" d="M 126.429688 109.429688 L 123.882812 139.921875 "/>
<path style="fill:none;stroke-width:1.2;stroke-linecap:butt;stroke-linejoin:miter;stroke:rgb(0%,0%,0%);stroke-opacity:1;stroke-miterlimit:10;" d="M 132.535156 144.484375 L 163.953125 166.300781 "/>
<path style="fill:none;stroke-width:1.2;stroke-linecap:butt;stroke-linejoin:miter;stroke:rgb(0%,0%,0%);stroke-opacity:1;stroke-miterlimit:10;" d="M 163.953125 166.300781 L 160.765625 204.417969 "/>
<path style="fill:none;stroke-width:1.2;stroke-linecap:butt;stroke-linejoin:miter;stroke:rgb(0%,0%,0%);stroke-opacity:1;stroke-miterlimit:10;" d="M 172.601562 170.863281 L 170.054688 201.355469 "/>
<path style="fill:none;stroke-width:1.2;stroke-linecap:butt;stroke-linejoin:miter;stroke:rgb(0%,0%,0%);stroke-opacity:1;stroke-miterlimit:10;" d="M 198.554688 150 L 163.953125 166.300781 "/>
<path style="fill:none;stroke-width:1.2;stroke-linecap:butt;stroke-linejoin:miter;stroke:rgb(0%,0%,0%);stroke-opacity:1;stroke-miterlimit:10;" d="M 160.765625 204.417969 L 192.1875 226.234375 "/>
<path style="fill:none;stroke-width:1.2;stroke-linecap:butt;stroke-linejoin:miter;stroke:rgb(0%,0%,0%);stroke-opacity:1;stroke-miterlimit:10;" d="M 192.1875 226.234375 L 226.789062 209.933594 "/>
<path style="fill:none;stroke-width:1.2;stroke-linecap:butt;stroke-linejoin:miter;stroke:rgb(0%,0%,0%);stroke-opacity:1;stroke-miterlimit:10;" d="M 191.8125 216.460938 L 219.492188 203.421875 "/>
<path style="fill:none;stroke-width:1.2;stroke-linecap:butt;stroke-linejoin:miter;stroke:rgb(0%,0%,0%);stroke-opacity:1;stroke-miterlimit:10;" d="M 226.789062 209.933594 L 229.972656 171.816406 "/>
<path style="fill:none;stroke-width:1.2;stroke-linecap:butt;stroke-linejoin:miter;stroke:rgb(0%,0%,0%);stroke-opacity:1;stroke-miterlimit:10;" d="M 229.972656 171.816406 L 198.554688 150 "/>
<path style="fill:none;stroke-width:1.2;stroke-linecap:butt;stroke-linejoin:miter;stroke:rgb(0%,0%,0%);stroke-opacity:1;stroke-miterlimit:10;" d="M 221.699219 177.027344 L 196.5625 159.574219 "/>
<path style="fill:none;stroke-width:1.2;stroke-linecap:butt;stroke-linejoin:miter;stroke:rgb(0%,0%,0%);stroke-opacity:1;stroke-miterlimit:10;" d="M 198.554688 150 L 201.738281 111.882812 "/>
<path style="fill:none;stroke-width:1.2;stroke-linecap:butt;stroke-linejoin:miter;stroke:rgb(0%,0%,0%);stroke-opacity:1;stroke-miterlimit:10;" d="M 201.738281 111.882812 L 203.332031 92.824219 "/>
<path style="fill:none;stroke-width:1.2;stroke-linecap:butt;stroke-linejoin:miter;stroke:rgb(20%,80%,80%);stroke-opacity:1;stroke-miterlimit:10;" d="M 203.332031 92.824219 L 204.921875 73.765625 "/>
<path style="fill:none;stroke-width:1.2;stroke-linecap:butt;stroke-linejoin:miter;stroke:rgb(0%,0%,0%);stroke-opacity:1;stroke-miterlimit:10;" d="M 201.738281 111.882812 L 220.796875 113.476562 "/>
<path style="fill:none;stroke-width:1.2;stroke-linecap:butt;stroke-linejoin:miter;stroke:rgb(20%,80%,80%);stroke-opacity:1;stroke-miterlimit:10;" d="M 220.796875 113.476562 L 239.855469 115.066406 "/>
<path style="fill:none;stroke-width:1.2;stroke-linecap:butt;stroke-linejoin:miter;stroke:rgb(0%,0%,0%);stroke-opacity:1;stroke-miterlimit:10;" d="M 201.738281 111.882812 L 182.679688 110.289062 "/>
<path style="fill:none;stroke-width:1.2;stroke-linecap:butt;stroke-linejoin:miter;stroke:rgb(20%,80%,80%);stroke-opacity:1;stroke-miterlimit:10;" d="M 182.679688 110.289062 L 163.621094 108.699219 "/>
<path style=" stroke:none;fill-rule:nonzero;fill:rgb(100%,100%,100%);fill-opacity:1;" d="M 199.921875 64.265625 L 209.921875 64.265625 L 209.921875 83.265625 L 199.921875 83.265625 Z M 199.921875 64.265625 "/>
<g style="fill:rgb(20%,80%,80%);fill-opacity:1;">
  <use xlink:href="#glyph0-3" x="199.921875" y="79.117188"/>
</g>
<path style=" stroke:none;fill-rule:nonzero;fill:rgb(100%,100%,100%);fill-opacity:1;" d="M 234.855469 105.566406 L 244.855469 105.566406 L 244.855469 124.566406 L 234.855469 124.566406 Z M 234.855469 105.566406 "/>
<g style="fill:rgb(20%,80%,80%);fill-opacity:1;">
  <use xlink:href="#glyph0-3" x="234.855469" y="120.417969"/>
</g>
<path style=" stroke:none;fill-rule:nonzero;fill:rgb(100%,100%,100%);fill-opacity:1;" d="M 153.621094 99.199219 L 163.621094 99.199219 L 163.621094 118.199219 L 153.621094 118.199219 Z M 153.621094 99.199219 "/>
<g style="fill:rgb(20%,80%,80%);fill-opacity:1;">
  <use xlink:href="#glyph0-3" x="153.621094" y="114.050781"/>
</g>
</g>
</svg>

<svg xmlns="http://www.w3.org/2000/svg" xmlns:xlink="http://www.w3.org/1999/xlink" width="300pt" height="300pt" viewBox="0 0 300 300"><defs><symbol overflow="visible"><path d="M.797 2.828v-14.11h8V2.83zm.906-.89h6.203v-12.33H1.703zm0 0"/></symbol><symbol overflow="visible" id="a"><path d="M1.578-11.672h2.125l5.172 9.766v-9.766h1.53V0H8.282L3.11-9.766V0H1.577zm0 0"/></symbol><symbol overflow="visible" id="b"><path d="M1.578-11.672h1.578v4.78H8.89v-4.78h1.58V0H8.89v-5.563H3.157V0H1.578zm0 0"/></symbol><symbol overflow="visible" id="c"><path d="M1.578-11.672H8.28v1.328H3.157v3.438H7.78v1.328H3.157V0H1.578zm0 0"/></symbol></defs><g><path fill="#fff" d="M0 0h300v300H0z"/><path d="M60.145 215.203l17.3-8.148" stroke-width="1.2" stroke="#000" stroke-miterlimit="10" fill="none"/><path d="M77.445 207.055l17.3-8.153M94.746 198.902l1.594-19.058" stroke-width="1.2" stroke="#00f" stroke-miterlimit="10" fill="none"/><path d="M96.34 179.844l1.59-19.06" stroke-width="1.2" stroke="#000" stroke-miterlimit="10" fill="none"/><path d="M82.746 189.402h24v19h-24zm0 0" fill="#fff"/><g fill="#00f"><use xlink:href="#a" x="82.746" y="204.254"/><use xlink:href="#b" x="94.715" y="204.254"/></g><path d="M97.93 160.785L82.223 149.88" stroke-width="1.2" stroke="#000" stroke-miterlimit="10" fill="none"/><path d="M82.223 149.88l-15.71-10.91" stroke-width="1.2" stroke="#00f" stroke-miterlimit="10" fill="none"/><path d="M99.922 151.21l-12.567-8.726" stroke-width="1.2" stroke="#000" stroke-miterlimit="10" fill="none"/><path d="M87.355 142.484l-12.566-8.726" stroke-width="1.2" stroke="#00f" stroke-miterlimit="10" fill="none"/><path d="M132.535 144.484l-34.605 16.3" stroke-width="1.2" stroke="#000" stroke-miterlimit="10" fill="none"/><path d="M66.512 138.97l1.593-19.06" stroke-width="1.2" stroke="#00f" stroke-miterlimit="10" fill="none"/><path d="M68.105 119.91l1.59-19.058" stroke-width="1.2" stroke="#000" stroke-miterlimit="10" fill="none"/><path d="M60.512 129.47h12v19h-12zm0 0" fill="#fff"/><use xlink:href="#a" x="60.512" y="144.32" fill="#00f"/><path d="M69.695 100.852L87 92.702" stroke-width="1.2" stroke="#000" stroke-miterlimit="10" fill="none"/><path d="M87 92.703l17.3-8.152" stroke-width="1.2" stroke="#00f" stroke-miterlimit="10" fill="none"/><path d="M76.992 107.363l13.84-6.52" stroke-width="1.2" stroke="#000" stroke-miterlimit="10" fill="none"/><path d="M90.832 100.844l13.844-6.52M104.3 84.55l15.708 10.91" stroke-width="1.2" stroke="#00f" stroke-miterlimit="10" fill="none"/><path d="M120.008 95.46l15.71 10.907" stroke-width="1.2" stroke="#000" stroke-miterlimit="10" fill="none"/><path d="M98.3 75.05h12v19h-12zm0 0" fill="#fff"/><use xlink:href="#a" x="98.301" y="89.902" fill="#00f"/><path d="M135.72 106.367l-3.185 38.117M126.43 109.43l-2.547 30.492M132.535 144.484l31.418 21.817M163.953 166.3l-3.187 38.118M172.602 170.863l-2.547 30.492M198.555 150l-34.602 16.3M160.766 204.418l31.422 21.816M192.188 226.234l34.6-16.3M191.813 216.46l27.68-13.038M226.79 209.934l3.183-38.118M229.973 171.816L198.555 150M221.7 177.027l-25.137-17.453M198.555 150l3.183-38.117M201.738 111.883l1.594-19.06" stroke-width="1.2" stroke="#000" stroke-miterlimit="10" fill="none"/><path d="M203.332 92.824l1.59-19.058" stroke-width="1.2" stroke="#3cc" stroke-miterlimit="10" fill="none"/><path d="M201.738 111.883l19.06 1.594" stroke-width="1.2" stroke="#000" stroke-miterlimit="10" fill="none"/><path d="M220.797 113.477l19.058 1.59" stroke-width="1.2" stroke="#3cc" stroke-miterlimit="10" fill="none"/><path d="M201.738 111.883l-19.058-1.594" stroke-width="1.2" stroke="#000" stroke-miterlimit="10" fill="none"/><path d="M182.68 110.29l-19.06-1.59" stroke-width="1.2" stroke="#3cc" stroke-miterlimit="10" fill="none"/><path d="M199.922 64.266h10v19h-10zm0 0" fill="#fff"/><use xlink:href="#c" x="199.922" y="79.117" fill="#3cc"/><path d="M234.855 105.566h10v19h-10zm0 0" fill="#fff"/><use xlink:href="#c" x="234.855" y="120.418" fill="#3cc"/><path d="M153.62 99.2h10v19h-10zm0 0" fill="#fff"/><use xlink:href="#c" x="153.621" y="114.051" fill="#3cc"/></g></svg>
